icons/list.svg

<svg xmlns="http://www.w3.org/2000/svg" xmlns:osb="http://www.openswatchbook.org/uri/2009/osb" id="svg7384" style="enable-background:new" width="22" height="22" version="1.1">
 <defs id="defs7386">
  <style id="current-color-scheme" type="text/css">
   .ColorScheme-Text { color:#d3dae3; } .ColorScheme-Highlight { color:#5294e2; } .ColorScheme-ButtonBackground { color:#d3dae3; }
  </style>
  <linearGradient id="linearGradient5606" osb:paint="solid">
   <stop id="stop5608" style="stop-color:currentColor;stop-opacity:1;" offset="0"/>
  </linearGradient>
 </defs>
 <g id="list-remove" transform="translate(-260.00082,5.00334)">
  <rect id="rect4169" style="opacity:0;fill:currentColor;fill-opacity:1;stroke:none;stroke-opacity:1" width="22" height="22" x="285" y="-5"/>
  <g id="g4154" style="enable-background:new" transform="translate(285.00081,-5.00334)">
   <g id="layer12-2" style="display:inline" transform="translate(-445.0004,125.00336)">
    <path id="path4140" style="opacity:1;fill:currentColor;fill-opacity:1;stroke:none;stroke-opacity:1" class="ColorScheme-Text" d="m 461.65725,-119.66021 a 8,8 0 0 0 -11.3137,0 8,8 0 0 0 0,11.3137 8,8 0 0 0 11.3137,0 8,8 0 0 0 0,-11.3137 z m -1.22362,3.34494 a 5,5 0 0 1 -0.8977,5.84744 5,5 0 0 1 -5.84329,0.89355 l 6.74099,-6.74099 z m -2.12547,-2.11717 -6.74099,6.74099 a 5,5 0 0 1 0.8977,-5.84744 5,5 0 0 1 5.84329,-0.89355 z"/>
   </g>
  </g>
 </g>
 <g id="list-add" transform="translate(-285.00081,5.00334)">
  <path id="rect4138" style="opacity:0;fill:currentColor;fill-opacity:1;fill-rule:nonzero;stroke:none;stroke-width:1;stroke-linecap:round;stroke-linejoin:round;stroke-miterlimit:4;stroke-dasharray:none;stroke-dashoffset:0;stroke-opacity:1" d="m 285.00081,-5.00334 22,0 0,22 -22,0 z"/>
  <path id="rect4179" style="opacity:1;fill:currentColor;fill-opacity:1;stroke:none;stroke-opacity:1" class="ColorScheme-Text" d="m 9,3 0,6 -6,0 0,4 6,0 0,6 4,0 0,-6 6,0 0,-4 -6,0 0,-6 -4,0 z" transform="translate(285.00081,-5.00334)"/>
 </g>
 <g id="16-16-list-remove" transform="translate(-285.00081,5.00334)">
  <rect id="rect4175" style="opacity:0;fill:#39ffff;fill-opacity:1;stroke:none;stroke-opacity:1" width="16" height="16" x="306" y="-26"/>
  <g id="g4155" style="enable-background:new" transform="translate(306.00095,-26.00332)">
   <g id="layer12-3" style="display:inline" transform="translate(-445.0004,119.00336)">
    <path id="path4992" style="font-style:normal;font-variant:normal;font-weight:normal;fill:currentColor;fill-opacity:1;stroke:none;stroke-width:2;marker:none;enable-background:accumulate" class="ColorScheme-Text" d="m 453.00026,-118.00338 c -3.86295,0 -7,3.13704 -7,7 0,3.86295 3.13705,7 7,7 3.86295,0 7,-3.13705 7,-7 0,-3.86296 -3.13705,-7 -7,-7 z m 0,2 c 1.01943,0 1.95898,0.28763 2.75,0.8125 l -6.9375,6.9375 c -0.52487,-0.79102 -0.8125,-1.73057 -0.8125,-2.75 0,-2.75926 2.24075,-5 5,-5 z m 4.1875,2.25 c 0.52487,0.79102 0.8125,1.73057 0.8125,2.75 0,2.75925 -2.24075,5 -5,5 -1.01943,0 -1.95898,-0.28763 -2.75,-0.8125 l 6.9375,-6.9375 z"/>
   </g>
  </g>
 </g>
 <g id="16-16-list-add" transform="translate(-285.00081,5.00334)">
  <rect id="rect4173" style="opacity:0;fill:#39ffff;fill-opacity:1;stroke:none;stroke-opacity:1" width="16" height="16" x="288" y="-26"/>
  <g id="g4169" style="enable-background:new" transform="translate(288.00081,-26.00334)">
   <g id="layer12-21" style="display:inline" transform="translate(-285.00081,-0.99666)">
    <path id="rect31992" style="display:inline;overflow:visible;visibility:visible;opacity:1;fill:currentColor;fill-opacity:1;stroke:none;stroke-width:1;marker:none" class="ColorScheme-Text" d="m 292.00081,3.99666 0,4 -4,0 0,2 4,0 0,4 2,0 0,-4 4,0 0,-2 -4,0 0,-4 -2,0 z"/>
   </g>
  </g>
 </g>
</svg>

<?xml version="1.0" encoding="UTF-8" standalone="no"?>
<!-- Created with Inkscape (http://www.inkscape.org/) -->

<svg
   xmlns:osb="http://www.openswatchbook.org/uri/2009/osb"
   xmlns:dc="http://purl.org/dc/elements/1.1/"
   xmlns:cc="http://creativecommons.org/ns#"
   xmlns:rdf="http://www.w3.org/1999/02/22-rdf-syntax-ns#"
   xmlns:svg="http://www.w3.org/2000/svg"
   xmlns="http://www.w3.org/2000/svg"
   xmlns:sodipodi="http://sodipodi.sourceforge.net/DTD/sodipodi-0.dtd"
   xmlns:inkscape="http://www.inkscape.org/namespaces/inkscape"
   sodipodi:docname="list.svgz"
   inkscape:export-filename="/home/sam/source-symbolic.png"
   inkscape:export-xdpi="270"
   inkscape:export-ydpi="270"
   height="22"
   id="svg7384"
   style="enable-background:new"
   version="1.1"
   inkscape:version="0.91 r13725"
   width="22">
  <sodipodi:namedview
     inkscape:bbox-nodes="true"
     inkscape:bbox-paths="false"
     bordercolor="#ebdbb2"
     borderlayer="false"
     borderopacity="1"
     inkscape:current-layer="layer12"
     inkscape:cx="-6.7620496"
     inkscape:cy="-0.67924958"
     gridtolerance="10"
     inkscape:guide-bbox="true"
     guidetolerance="10"
     id="namedview88"
     inkscape:object-nodes="true"
     inkscape:object-paths="true"
     objecttolerance="10"
     pagecolor="#ebdbb2"
     inkscape:pageopacity="0"
     inkscape:pageshadow="2"
     showborder="true"
     showgrid="false"
     showguides="true"
     inkscape:showpageshadow="false"
     inkscape:snap-bbox="true"
     inkscape:snap-bbox-edge-midpoints="false"
     inkscape:snap-bbox-midpoints="true"
     inkscape:snap-center="false"
     inkscape:snap-global="true"
     inkscape:snap-grids="true"
     inkscape:snap-intersection-paths="true"
     inkscape:snap-midpoints="true"
     inkscape:snap-nodes="true"
     inkscape:snap-object-midpoints="true"
     inkscape:snap-others="true"
     inkscape:snap-page="false"
     inkscape:snap-smooth-nodes="true"
     inkscape:snap-to-guides="true"
     inkscape:window-height="843"
     inkscape:window-maximized="1"
     inkscape:window-width="1543"
     inkscape:window-x="57"
     inkscape:window-y="33"
     inkscape:zoom="4.98">
    <inkscape:grid
       color="#ebdbb2"
       dotted="false"
       empcolor="#ebdbb2"
       empopacity="0.4627451"
       empspacing="4"
       enabled="true"
       id="grid4866"
       opacity="0.16470588"
       originx="-44.000611"
       originy="-216.00334"
       snapvisiblegridlinesonly="true"
       spacingx="0.25px"
       spacingy="0.25px"
       type="xygrid"
       visible="true" />
  </sodipodi:namedview>
  <metadata
     id="metadata90">
    <rdf:RDF>
      <cc:Work
         rdf:about="">
        <dc:format>image/svg+xml</dc:format>
        <dc:type
           rdf:resource="http://purl.org/dc/dcmitype/StillImage" />
        <dc:title>Paper Symbolic Icon Theme</dc:title>
      </cc:Work>
    </rdf:RDF>
  </metadata>
  <title
     id="title8473">Paper Symbolic Icon Theme</title>
  <defs
     id="defs7386">
    <linearGradient
       id="linearGradient5606"
       osb:paint="solid">
      <stop
         id="stop5608"
         offset="0"
         style="stop-color:#ebdbb2;stop-opacity:1;" />
    </linearGradient>
  </defs>
  <g
     inkscape:groupmode="layer"
     id="layer12"
     inkscape:label="actions"
     style="display:inline"
     transform="translate(-285.00081,5.00334)">
    <g
       id="list-remove"
       transform="translate(24.999986,0)"
       inkscape:label="#g4171">
      <rect
         y="-5.0033398"
         x="285.00082"
         height="22"
         width="22"
         id="rect4169"
         style="opacity:0;fill:#ebdbb2;fill-opacity:1;stroke:none;stroke-opacity:1" />
      <g
         transform="translate(285.00081,-5.00334)"
         id="g4154"
         style="enable-background:new">
        <g
           id="layer12-2"
           inkscape:label="actions"
           style="display:inline"
           transform="translate(-445.0004,125.00336)">
          <path
             style="opacity:0.72;fill:#ebdbb2;fill-opacity:1;stroke:none;stroke-opacity:1"
             d="m 461.65725,-119.66021 a 8,8 0 0 0 -11.3137,0 8,8 0 0 0 0,11.3137 8,8 0 0 0 11.3137,0 8,8 0 0 0 0,-11.3137 z m -1.22362,3.34494 a 5,5 0 0 1 -0.8977,5.84744 5,5 0 0 1 -5.84329,0.89355 l 6.74099,-6.74099 z m -2.12547,-2.11717 -6.74099,6.74099 a 5,5 0 0 1 0.8977,-5.84744 5,5 0 0 1 5.84329,-0.89355 z"
             id="path4140"
             inkscape:connector-curvature="0" />
        </g>
      </g>
    </g>
    <g
       id="list-add"
       inkscape:label="#g4184">
      <path
         inkscape:connector-curvature="0"
         id="rect4138"
         d="m 285.00081,-5.00334 22,0 0,22 -22,0 z"
         style="opacity:0;fill:#ebdbb2;fill-opacity:1;fill-rule:nonzero;stroke:none;stroke-width:1;stroke-linecap:round;stroke-linejoin:round;stroke-miterlimit:4;stroke-dasharray:none;stroke-dashoffset:0;stroke-opacity:1" />
      <path
         id="rect4179"
         transform="translate(285.00081,-5.00334)"
         d="M 9 3 L 9 9 L 3 9 L 3 13 L 9 13 L 9 19 L 13 19 L 13 13 L 19 13 L 19 9 L 13 9 L 13 3 L 9 3 z "
         style="opacity:0.72;fill:#ebdbb2;fill-opacity:1;stroke:none;stroke-opacity:1" />
    </g>
    <g
       id="16-16-list-remove"
       inkscape:label="#g4183">
      <rect
         style="opacity:0;fill:#ebdbb2;fill-opacity:1;stroke:none;stroke-opacity:1"
         id="rect4175"
         width="16"
         height="16"
         x="306.00082"
         y="-26.00334" />
      <g
         transform="translate(306.00095,-26.00332)"
         id="g4155"
         style="enable-background:new">
        <g
           id="layer12-3"
           inkscape:label="actions"
           style="display:inline"
           transform="translate(-445.0004,119.00336)">
          <path
             inkscape:connector-curvature="0"
             d="m 453.00026,-118.00338 c -3.86295,0 -7,3.13704 -7,7 0,3.86295 3.13705,7 7,7 3.86295,0 7,-3.13705 7,-7 0,-3.86296 -3.13705,-7 -7,-7 z m 0,2 c 1.01943,0 1.95898,0.28763 2.75,0.8125 l -6.9375,6.9375 c -0.52487,-0.79102 -0.8125,-1.73057 -0.8125,-2.75 0,-2.75926 2.24075,-5 5,-5 z m 4.1875,2.25 c 0.52487,0.79102 0.8125,1.73057 0.8125,2.75 0,2.75925 -2.24075,5 -5,5 -1.01943,0 -1.95898,-0.28763 -2.75,-0.8125 l 6.9375,-6.9375 z"
             id="path4992"
             style="color:#ebdbb2;font-style:normal;font-variant:normal;font-weight:normal;font-stretch:normal;line-height:normal;font-family:Sans;-inkscape-font-specification:Sans;text-indent:0;text-align:start;text-decoration:none;text-decoration-line:none;letter-spacing:normal;word-spacing:normal;text-transform:none;direction:ltr;block-progression:tb;writing-mode:lr-tb;baseline-shift:baseline;text-anchor:start;display:inline;overflow:visible;visibility:visible;opacity:0.72;fill:#ebdbb2;fill-opacity:1;stroke:none;stroke-width:2;marker:none;enable-background:accumulate" />
        </g>
      </g>
    </g>
    <g
       id="16-16-list-add"
       inkscape:label="#g4177">
      <rect
         y="-26.00334"
         x="288.00082"
         height="16"
         width="16"
         id="rect4173"
         style="opacity:0;fill:#ebdbb2;fill-opacity:1;stroke:none;stroke-opacity:1" />
      <g
         transform="translate(288.00081,-26.00334)"
         id="g4169"
         style="enable-background:new">
        <g
           id="layer12-21"
           inkscape:label="actions"
           style="display:inline"
           transform="translate(-285.00081,-0.99666)">
          <path
             inkscape:connector-curvature="0"
             d="m 292.00081,3.99666 0,4 -4,0 0,2 4,0 0,4 2,0 0,-4 4,0 0,-2 -4,0 0,-4 -2,0 z"
             id="rect31992"
             style="color:#ebdbb2;display:inline;overflow:visible;visibility:visible;opacity:0.72;fill:#ebdbb2;fill-opacity:1;stroke:none;stroke-width:1;marker:none" />
        </g>
      </g>
    </g>
  </g>
</svg>
